packages/foundations/assets/icons/functional/images/arrows/arrow_down_32.svg

<svg width="32" height="32" viewBox="0 0 32 32" fill="none" xmlns="http://www.w3.org/2000/svg">
<g clip-path="url(#clip0_183_3759)">
<path fill-rule="evenodd" clip-rule="evenodd" d="M16.0004 6.0002C16.5624 6.0002 17.0004 6.4372 17.0004 7.0002V22.5942L23.2814 16.2812C23.3753 16.1872 23.4877 16.1137 23.6114 16.0653C23.7352 16.017 23.8676 15.9948 24.0004 16.0002C24.5624 16.0002 25.0004 16.4062 25.0004 17.0002C25.0004 17.2502 24.9374 17.5002 24.7194 17.7192L16.7194 25.7192C16.6252 25.8131 16.5126 25.8865 16.3887 25.9346C16.2648 25.9828 16.1322 26.0048 15.9994 25.9992C15.8668 26.0047 15.7346 25.9826 15.611 25.9344C15.4875 25.8862 15.3752 25.8129 15.2814 25.7192L7.28138 17.7192C7.18735 17.6251 7.11384 17.5125 7.06547 17.3886C7.01711 17.2647 6.99495 17.1321 7.00038 16.9992C7.00038 16.4062 7.46938 15.9992 8.00038 15.9992C8.25038 15.9992 8.50038 16.0622 8.71938 16.2812L15.0004 22.5942V7.0002C15.0004 6.4372 15.4374 6.0002 16.0004 6.0002Z" fill="#1A1C1F"/>
</g>
<defs>
<clipPath id="clip0_183_3759">
<rect width="32" height="32" fill="white"/>
</clipPath>
</defs>
</svg>

<svg xmlns="http://www.w3.org/2000/svg" width="32" height="32" fill="none"><g clip-path="url(#a)"><path fill="#1A1C1F" fill-rule="evenodd" d="M16 6c.562 0 1 .437 1 1v15.594l6.281-6.313a.96.96 0 0 1 .72-.28c.561 0 1 .405 1 1 0 .25-.064.5-.282.718l-8 8A.96.96 0 0 1 16 26a.96.96 0 0 1-.718-.28l-8-8a.96.96 0 0 1-.28-.72c0-.593.468-1 1-1 .25 0 .5.063.718.282L15 22.594V7c0-.563.437-1 1-1" clip-rule="evenodd"/></g><defs><clipPath id="a"><path fill="#fff" d="M0 0h32v32H0z"/></clipPath></defs></svg>
